X:15
T:Fermoy Lasses
M:C|
R:reel
C:Traditional
K:Em
GE E2 BE E2 | GE E2 BcBA | GE E2 BE E2 | AFDF AcBA |
GE E2 BE E2 | GE E2 BcBA | G2 GF GBdB | AFDF AcBA :|
|: G2 BG dGBG | G2 Bd ef g2 | G2 BG dGBG | AFDF AcBA |
G2 BG dGBG | G2 Bd ef g2 | afge fded | AFDF AcBA :|

%%newpage
%%scale .7
%%staffsep 40

